X: 19411
T: Jackie Donnan's
R: mazurka
M: 3/4
K: Gmajor
|:d/|B>A G2 G2|B>d g2 g2|f>g a2 a>g|f<g A2- A>c|
(3cBA G2 G2|B>d g2 g2|f>g a2 a>b|c'>a g2- g3/2:|
|:d'/|b>a g2 g>a|b>c' e2 e2|d>f a2 a>b|c'>a d'2- d'>b|
d'>b g2 g>a|b>c' e2 e2|d>f a2- a>b|(3c'ba g2- g3/2:|

